packages/icons/src/emoji/svg/tool.svg

<svg width="120" height="120" viewBox="0 0 120 120" fill="none" xmlns="http://www.w3.org/2000/svg">
<path d="M106.116 53.0438C111.16 48 112.66 40.6594 110.728 33.8625C110.616 33.4688 110.11 33.3469 109.819 33.6375L98.8971 44.5594C98.2034 45.2531 97.0784 45.2531 96.3846 44.5594L84.4502 32.625C83.7565 31.9313 83.7565 30.8063 84.4502 30.1125L95.3721 19.1906C95.6628 18.9 95.5409 18.3938 95.1471 18.2813C88.3502 16.35 81.0096 17.85 75.9659 22.8938C70.9034 27.9563 69.4128 35.3156 71.3628 42.1313C61.4159 58.8281 45.2909 73.9125 29.2503 84.6469C25.6596 87.0469 21.6565 88.7531 19.6409 92.8313C17.7846 96.5813 17.9721 101.1 20.1471 104.681C20.6815 105.553 23.4378 108.319 24.319 108.853C27.9003 111.038 32.419 111.216 36.169 109.359C40.2471 107.344 41.9534 103.331 44.3534 99.75C55.0877 83.7094 70.1721 67.5938 86.8784 57.6375C93.694 59.5969 101.053 58.0969 106.116 53.0438ZM27.2065 101.794C26.2993 100.856 25.7967 99.5995 25.8073 98.2948C25.8178 96.99 26.3405 95.7417 27.2628 94.8188C28.1857 93.8965 29.434 93.3738 30.7387 93.3633C32.0434 93.3527 33.3001 93.8553 34.2378 94.7625C35.145 95.7002 35.6475 96.9568 35.637 98.2615C35.6265 99.5662 35.1038 100.815 34.1815 101.738C33.2596 102.662 32.0109 103.186 30.7055 103.196C29.4002 103.207 28.1432 102.703 27.2065 101.794Z" fill="#78A3AD"/>
<path d="M43.1255 89.0625C42.477 89.0626 41.843 88.8708 41.3034 88.5113C40.7638 88.1517 40.3426 87.6405 40.093 87.042C39.8434 86.4436 39.7765 85.7846 39.9007 85.1482C40.0249 84.5117 40.3347 83.9263 40.7911 83.4656L71.2598 52.7625C71.8732 52.1455 72.7063 51.797 73.5763 51.7935C74.4463 51.79 75.2821 52.1317 75.9005 52.7437C76.5175 53.3571 76.866 54.1902 76.8695 55.0602C76.873 55.9302 76.5312 56.766 75.9192 57.3844L45.4505 88.0875C44.813 88.7437 43.9692 89.0625 43.1255 89.0625Z" fill="#2F2F2F"/>
<path d="M101.043 94.6501C97.0684 90.5532 81.7777 75.7313 77.5777 71.8314C74.6246 69.0939 64.2465 61.2001 63.234 60.1876L40.6027 37.6782L34.3965 43.8845L56.9059 66.5157C57.909 67.5282 65.8121 77.9063 68.5402 80.8501C72.4402 85.0501 87.2621 100.35 91.359 104.316C91.6777 104.625 92.6902 105.591 93.7309 106.575C95.2121 107.981 97.2934 108.178 98.4371 107.034L103.753 101.719C104.896 100.575 104.69 98.4939 103.293 97.0126C102.318 95.9814 101.353 94.9595 101.043 94.6501Z" fill="#855C52"/>
<path d="M40.2373 43.5187C41.3342 42.4218 42.7029 41.6812 44.2311 41.2781L38.0529 35.1375L31.8467 41.3437L37.9873 47.5218C38.3998 45.975 39.1404 44.6156 40.2373 43.5187Z" fill="#855C52"/>
<path d="M47.766 13.4156C46.2472 13.0125 43.7441 13.1719 38.5222 14.2313C33.4128 15.2719 31.8847 17.2781 30.5722 18.5906L15.2816 33.8719C14.9441 34.2094 14.9441 34.7531 15.2816 35.0906L17.7847 37.5937C18.3003 38.1094 18.0847 38.9906 17.3816 39.2062L16.5941 39.45C14.7753 40.0125 12.8441 40.1625 10.9597 39.8813C10.0316 39.7406 9.09409 40.0594 8.42846 40.7156L4.77221 44.3719C4.6853 44.4586 4.61635 44.5616 4.56931 44.675C4.52226 44.7885 4.49805 44.91 4.49805 45.0328C4.49805 45.1556 4.52226 45.2772 4.56931 45.3906C4.61635 45.504 4.6853 45.607 4.77221 45.6937L19.1535 60.075C19.6446 60.5659 20.3106 60.8416 21.005 60.8416C21.6994 60.8416 22.3654 60.5659 22.8566 60.075L25.3128 57.6187C25.9785 56.9531 26.2878 56.0156 26.1472 55.0781C25.866 53.1844 26.016 51.2531 26.5785 49.425L26.8128 48.6562C27.0285 47.9625 27.9097 47.7375 28.4253 48.2531L30.9378 50.7656C31.2753 51.1031 31.8191 51.1031 32.1566 50.7656L48.0191 34.9031C48.3566 34.5656 48.3566 34.0219 48.0191 33.6844L43.0972 28.7625C43.0972 28.7625 40.7816 26.4469 40.3878 25.3969C38.466 20.1188 44.3066 17.1656 46.6972 15.7313C49.1253 14.2875 49.2847 13.8094 47.766 13.4156Z" fill="#78A3AD"/>
<path d="M17.8679 37.7146C17.8679 37.7053 17.8586 37.6867 17.8586 37.6774L17.7842 37.603C17.8214 37.6309 17.84 37.6774 17.8679 37.7146Z" fill="#0696A6"/>
<path d="M17.8586 37.6774C17.84 37.6309 17.7842 37.603 17.7842 37.603L17.8586 37.6774Z" fill="#00838F"/>
<path d="M17.3809 39.2156L16.5934 39.4593C14.7746 40.0218 12.8434 40.1718 10.959 39.8906L24.759 53.6906C24.8527 53.8781 24.9277 54.0562 25.0215 54.2437C25.0496 55.0687 24.7402 55.875 24.1496 56.4562L21.6934 58.9125C21.2022 59.4033 20.5362 59.679 19.8418 59.679C19.1474 59.679 18.4814 59.4033 17.9902 58.9125L20.3434 61.2656C20.709 61.6312 21.2996 61.6312 21.6652 61.2656L25.3121 57.6187C25.9965 56.9343 26.2777 55.9687 26.1371 55.0218C25.8652 53.1468 26.0152 51.2437 26.5777 49.4343L26.8121 48.6656C27.0277 47.9718 27.909 47.7468 28.4246 48.2625L24.8152 44.6531L23.4465 43.2843L17.8309 37.6687C17.8402 37.6781 17.8402 37.6875 17.8402 37.7062C18.2621 38.2312 18.0371 39.0093 17.3809 39.2156Z" fill="#78A3AD"/>
<path d="M81.2625 26.1C80.55 26.1 79.8469 25.7812 79.3875 25.1625C78.6094 24.1312 78.8156 22.6594 79.8469 21.8812C81.0937 20.9437 82.4719 20.1562 83.9344 19.5656C84.2194 19.4493 84.5245 19.3902 84.8324 19.3918C85.1402 19.3934 85.4447 19.4556 85.7285 19.5748C86.0123 19.6941 86.2698 19.8681 86.4864 20.0869C86.7029 20.3057 86.8743 20.565 86.9906 20.85C87.107 21.135 87.166 21.4401 87.1645 21.748C87.1629 22.0558 87.1007 22.3603 86.9814 22.6441C86.8621 22.9279 86.6881 23.1855 86.4694 23.402C86.2506 23.6186 85.9912 23.7899 85.7062 23.9062C84.6187 24.3469 83.5969 24.9281 82.6687 25.6219C82.2469 25.95 81.7594 26.1 81.2625 26.1ZM107.672 40.4625C108.234 40.2469 108.891 40.2844 109.453 40.6312C110.391 41.2125 110.681 42.45 110.091 43.3875C109.387 44.5219 108.525 45.5625 107.55 46.4906C106.744 47.25 105.478 47.2125 104.719 46.4062C103.959 45.6 103.997 44.3344 104.803 43.575C105.534 42.8906 106.162 42.1125 106.688 41.2781C106.931 40.8844 107.278 40.6125 107.672 40.4625ZM10.725 47.9156C10.1531 47.9156 9.58125 47.6906 9.15 47.2406C8.27813 46.3406 8.27813 44.8875 9.15 43.9969L10.0687 43.05C10.9406 42.15 12.3562 42.15 13.2281 43.05C14.1 43.95 14.1 45.4031 13.2281 46.2938L12.3094 47.2406C11.8687 47.6906 11.2969 47.9156 10.725 47.9156ZM20.3062 32.325C21.1687 31.575 27.8812 24.7125 32.5969 19.8937L32.7469 19.7625C33.0469 19.5281 34.3781 18.2062 36.4781 17.6437C37.3312 17.4187 38.3344 17.2031 38.4094 18.0094C38.4844 18.8156 37.7906 19.5656 37.7906 19.5656C37.1719 20.4187 36 21.9937 35.0344 22.7344C33.525 24.2812 24.6187 34.0969 23.4 35.1469C23.0906 35.4094 21.4969 35.775 20.7469 35.2406C19.7812 34.5375 19.3875 33.1219 20.3062 32.325Z" fill="white"/>
</svg>

<svg xmlns="http://www.w3.org/2000/svg" fill="none" aria-hidden="true" data-slot="icon" viewBox="0 0 120 120"><path fill="#78A3AD" d="M106.116 53.044c5.044-5.044 6.544-12.385 4.612-19.181-.112-.394-.618-.516-.909-.225L98.897 44.559a1.777 1.777 0 0 1-2.512 0L84.45 32.625a1.777 1.777 0 0 1 0-2.512L95.372 19.19c.29-.291.169-.797-.225-.91-6.797-1.931-14.137-.431-19.181 4.613-5.063 5.062-6.553 12.422-4.603 19.237C61.416 58.828 45.29 73.912 29.25 84.647c-3.59 2.4-7.593 4.106-9.61 8.184-1.855 3.75-1.668 8.269.507 11.85.535.872 3.29 3.638 4.172 4.172 3.581 2.185 8.1 2.363 11.85.506 4.078-2.015 5.784-6.028 8.184-9.609 10.735-16.04 25.82-32.156 42.525-42.112 6.816 1.959 14.175.459 19.238-4.594m-78.91 48.75a4.975 4.975 0 0 1 .057-6.975 4.974 4.974 0 0 1 6.975-.056 4.975 4.975 0 0 1-3.532 8.433 4.97 4.97 0 0 1-3.5-1.402"/><path fill="#2F2F2F" d="M43.126 89.063a3.285 3.285 0 0 1-2.335-5.597L71.26 52.763a3.285 3.285 0 0 1 4.64-.02 3.285 3.285 0 0 1 .02 4.641L45.45 88.088a3.22 3.22 0 0 1-2.325.975"/><path fill="#855C52" d="M101.043 94.65c-3.975-4.097-19.265-18.919-23.465-22.819-2.953-2.737-13.332-10.63-14.344-11.643l-22.631-22.51-6.206 6.207 22.509 22.63c1.003 1.013 8.906 11.391 11.634 14.335 3.9 4.2 18.722 19.5 22.819 23.466.319.309 1.331 1.275 2.372 2.259 1.481 1.406 3.562 1.603 4.706.459l5.316-5.315c1.143-1.144.937-3.225-.46-4.706a207 207 0 0 0-2.25-2.363"/><path fill="#855C52" d="M40.237 43.519c1.097-1.097 2.466-1.838 3.994-2.24l-6.178-6.142-6.206 6.207 6.14 6.178c.413-1.547 1.153-2.906 2.25-4.003"/><path fill="#78A3AD" d="M47.766 13.416c-1.519-.404-4.022-.244-9.244.815-5.11 1.04-6.637 3.047-7.95 4.36l-15.29 15.28a.86.86 0 0 0 0 1.22l2.503 2.503a.97.97 0 0 1-.403 1.612l-.788.244c-1.819.563-3.75.712-5.634.431a2.98 2.98 0 0 0-2.532.835l-3.656 3.656a.933.933 0 0 0 0 1.322l14.381 14.381a2.62 2.62 0 0 0 3.704 0l2.456-2.456a2.96 2.96 0 0 0 .834-2.54 12.8 12.8 0 0 1 .431-5.654l.235-.769a.973.973 0 0 1 1.612-.403l2.513 2.513a.86.86 0 0 0 1.219 0l15.862-15.863a.86.86 0 0 0 0-1.219l-4.922-4.921s-2.315-2.316-2.71-3.366c-1.921-5.278 3.92-8.231 6.31-9.666 2.428-1.444 2.588-1.922 1.069-2.315"/><path fill="#0696A6" d="M17.868 37.715c0-.01-.01-.028-.01-.038l-.074-.074c.037.028.056.074.084.112"/><path fill="#00838F" d="M17.859 37.677c-.019-.046-.075-.074-.075-.074z"/><path fill="#78A3AD" d="m17.38 39.216-.787.243a12.7 12.7 0 0 1-5.634.432l13.8 13.8c.094.187.169.365.262.553a2.96 2.96 0 0 1-.871 2.212l-2.457 2.456a2.62 2.62 0 0 1-3.703 0l2.353 2.354a.934.934 0 0 0 1.322 0l3.647-3.647c.684-.685.966-1.65.825-2.597a12.7 12.7 0 0 1 .44-5.588l.235-.768a.973.973 0 0 1 1.613-.403l-3.61-3.61-1.369-1.369-5.615-5.615c.01.01.01.019.01.037a.95.95 0 0 1-.46 1.51"/><path fill="#fff" d="M81.263 26.1a2.32 2.32 0 0 1-1.876-.937 2.345 2.345 0 0 1 .46-3.282 18 18 0 0 1 4.087-2.315 2.344 2.344 0 0 1 1.772 4.34 13.6 13.6 0 0 0-3.037 1.716 2.26 2.26 0 0 1-1.406.478m26.409 14.362a2.01 2.01 0 0 1 1.781.17 1.995 1.995 0 0 1 .638 2.756 15.8 15.8 0 0 1-2.541 3.103 2 2 0 0 1-2.831-.085 2 2 0 0 1 .084-2.831 11.7 11.7 0 0 0 1.885-2.297 1.97 1.97 0 0 1 .984-.816m-96.947 7.454a2.17 2.17 0 0 1-1.575-.675 2.34 2.34 0 0 1 0-3.244l.919-.947c.872-.9 2.287-.9 3.16 0 .871.9.871 2.353 0 3.244l-.92.947a2.2 2.2 0 0 1-1.584.675m9.581-15.591c.863-.75 7.575-7.613 12.29-12.431l.15-.131c.3-.235 1.632-1.557 3.732-2.12.853-.224 1.856-.44 1.931.366.075.807-.618 1.557-.618 1.557-.62.853-1.791 2.428-2.757 3.168C33.525 24.281 24.62 34.097 23.4 35.147c-.31.262-1.903.628-2.653.094-.966-.703-1.36-2.12-.44-2.916"/></svg>
